src/apps/scalable/rlogo_icon.svg

<?xml version="1.0" encoding="UTF-8" standalone="no"?>
<svg
   width="64"
   height="64"
   version="1.1"
   viewBox="0 0 16.933 16.933"
   id="svg20"
   sodipodi:docname="rlogo_icon.svg"
   inkscape:version="1.1.2 (1:1.1+202202050950+0a00cf5339)"
   xmlns:inkscape="http://www.inkscape.org/namespaces/inkscape"
   xmlns:sodipodi="http://sodipodi.sourceforge.net/DTD/sodipodi-0.dtd"
   xmlns:xlink="http://www.w3.org/1999/xlink"
   xmlns="http://www.w3.org/2000/svg"
   xmlns:svg="http://www.w3.org/2000/svg">
  <sodipodi:namedview
     id="namedview22"
     pagecolor="#505050"
     bordercolor="#eeeeee"
     borderopacity="1"
     inkscape:pageshadow="0"
     inkscape:pageopacity="0"
     inkscape:pagecheckerboard="0"
     showgrid="false"
     inkscape:zoom="12.984375"
     inkscape:cx="32"
     inkscape:cy="31.961492"
     inkscape:window-width="2560"
     inkscape:window-height="1358"
     inkscape:window-x="0"
     inkscape:window-y="0"
     inkscape:window-maximized="1"
     inkscape:current-layer="g18" />
  <defs
     id="defs10">
    <linearGradient
       inkscape:collect="always"
       id="linearGradient1337">
      <stop
         style="stop-color:#5e81ac;stop-opacity:1"
         offset="0"
         id="stop1333" />
      <stop
         style="stop-color:#81a1c1;stop-opacity:1"
         offset="1"
         id="stop1335" />
    </linearGradient>
    <linearGradient
       inkscape:collect="always"
       id="linearGradient1291">
      <stop
         style="stop-color:#7b88a1;stop-opacity:1;"
         offset="0"
         id="stop1287" />
      <stop
         style="stop-color:#a6aebf;stop-opacity:1"
         offset="1"
         id="stop1289" />
    </linearGradient>
    <filter
       id="filter1178"
       x="-0.047999482"
       y="-0.047999482"
       width="1.095999"
       height="1.095999"
       color-interpolation-filters="sRGB">
      <feGaussianBlur
         stdDeviation="0.30691668"
         id="feGaussianBlur2" />
    </filter>
    <linearGradient
       id="linearGradient1340"
       x1="8.355"
       x2="8.3996"
       y1="16.007"
       y2=".79375"
       gradientUnits="userSpaceOnUse">
      <stop
         stop-color="#d8dee9"
         offset="0"
         id="stop5"
         style="stop-color:#a6aebf;stop-opacity:1" />
      <stop
         stop-color="#eceff4"
         offset="1"
         id="stop7"
         style="stop-color:#d8dee9;stop-opacity:1" />
    </linearGradient>
    <linearGradient
       inkscape:collect="always"
       xlink:href="#linearGradient1291"
       id="linearGradient1293"
       x1="8.4788399"
       y1="11.732721"
       x2="8.4664993"
       y2="2.7185571"
       gradientUnits="userSpaceOnUse" />
    <linearGradient
       inkscape:collect="always"
       xlink:href="#linearGradient1337"
       id="linearGradient872"
       gradientUnits="userSpaceOnUse"
       x1="11.590697"
       y1="12.170595"
       x2="11.331449"
       y2="4.761806" />
    <filter
       inkscape:collect="always"
       style="color-interpolation-filters:sRGB"
       id="filter947"
       x="-0.04037572"
       y="-0.037491135"
       width="1.0807514"
       height="1.0749823">
      <feGaussianBlur
         inkscape:collect="always"
         stdDeviation="0.11572561"
         id="feGaussianBlur949" />
    </filter>
  </defs>
  <g
     stroke-linecap="round"
     stroke-linejoin="round"
     id="g18">
    <rect
       transform="matrix(.99138 0 0 1 .072989 2.5202e-7)"
       x=".79375"
       y="1.0171"
       width="15.346"
       height="15.346"
       rx="3.0526"
       ry="3.0526"
       fill="#2e3440"
       filter="url(#filter1178)"
       opacity=".2"
       stroke-width="1.2489"
       style="mix-blend-mode:normal"
       id="rect12" />
    <rect
       x=".92604"
       y=".92604"
       width="15.081"
       height="15.081"
       rx="3"
       ry="3"
       fill="url(#linearGradient1340)"
       stroke-width="1.2274"
       id="rect14" />
    <path
       style="opacity:1;stroke-width:0.264578;fill:url(#linearGradient1293);fill-opacity:1"
       d="M 8.4664997,2.7185572 A 6.3498749,4.4978323 0 0 0 2.116625,7.2163852 6.3498749,4.4978323 0 0 0 8.4664997,11.714213 6.3498749,4.4978323 0 0 0 14.816375,7.2163852 6.3498749,4.4978323 0 0 0 8.4664997,2.7185572 Z M 9.5248124,4.3060259 A 4.7624064,2.9103622 0 0 1 14.287219,7.2163852 4.7624064,2.9103622 0 0 1 9.5248124,10.126745 4.7624064,2.9103622 0 0 1 4.7624063,7.2163852 4.7624064,2.9103622 0 0 1 9.5248124,4.3060259 Z"
       id="path4" />
    <path
       style="fill:#2e3440;fill-rule:evenodd;stroke-width:0.264578;fill-opacity:1;opacity:0.318;filter:url(#filter947)"
       d="m 12.172817,9.2471626 c 0,0 0.204854,-0.05874 0.409163,0.04551 0.07089,0.03598 0.193551,0.108636 0.28203,0.203566 0.08667,0.09303 0.128927,0.187269 0.128927,0.187269 l 1.243496,2.4870874 h -2.645736 c 0,0 -0.591216,-1.728224 -1.144598,-2.4679854 -0.110105,-0.09006 -0.202055,-0.186529 -0.310567,-0.177851 H 9.4739393 l 3.18e-4,2.6444054 H 7.3575103 V 4.7624048 h 4.0101407 c 0.434694,0 2.275333,0.264579 2.339624,2.116652 -0.06429,1.8520998 -1.534527,2.3812818 -1.534527,2.3812818 z M 9.4743263,6.3362478 v 1.587998 h 1.5872817 c 0,0 0.529147,0.01905 0.529147,-0.793761 0,-0.853767 -0.529147,-0.793284 -0.529147,-0.793284 z"
       id="path6" />
    <path
       style="fill:url(#linearGradient872);fill-opacity:1;fill-rule:evenodd;stroke-width:0.264578"
       d="m 12.172817,9.2471626 c 0,0 0.204854,-0.05874 0.409163,0.04551 0.07089,0.03598 0.193551,0.108636 0.28203,0.203566 0.08667,0.09303 0.128927,0.187269 0.128927,0.187269 l 1.243496,2.4870874 h -2.645736 c 0,0 -0.591216,-1.728224 -1.144598,-2.4679854 -0.110105,-0.09006 -0.202055,-0.186529 -0.310567,-0.177851 H 9.4739393 l 3.18e-4,2.6444054 H 7.3575103 V 4.7624048 h 4.0101407 c 0.434694,0 2.275333,0.264579 2.339624,2.116652 -0.06429,1.8520998 -1.534527,2.3812818 -1.534527,2.3812818 z M 9.4743263,6.3362478 v 1.587998 h 1.5872817 c 0,0 0.529147,0.01905 0.529147,-0.793761 0,-0.853767 -0.529147,-0.793284 -0.529147,-0.793284 z"
       id="path6-7" />
    <rect
       x=".01215"
       y=".0060174"
       width="16.924"
       height="16.927"
       fill="none"
       opacity=".15"
       stroke-width="1.052"
       id="rect16" />
  </g>
</svg>

<?xml version="1.0" encoding="UTF-8"?>
<svg width="64" height="64" version="1.1" viewBox="0 0 16.933 16.933" xmlns="http://www.w3.org/2000/svg" xmlns:xlink="http://www.w3.org/1999/xlink">
 <defs>
  <filter id="filter1178" x="-.047999" y="-.047999" width="1.096" height="1.096" color-interpolation-filters="sRGB">
   <feGaussianBlur stdDeviation="0.30691668"/>
  </filter>
  <linearGradient id="linearGradient1340" x1="8.355" x2="8.3996" y1="16.007" y2=".79375" gradientUnits="userSpaceOnUse">
   <stop stop-color="#a6aebf" offset="0"/>
   <stop stop-color="#d8dee9" offset="1"/>
  </linearGradient>
  <linearGradient id="linearGradient1293" x1="8.4788" x2="8.4665" y1="11.733" y2="2.7186" gradientUnits="userSpaceOnUse">
   <stop stop-color="#7b88a1" offset="0"/>
   <stop stop-color="#a6aebf" offset="1"/>
  </linearGradient>
  <linearGradient id="linearGradient872" x1="11.591" x2="11.331" y1="12.171" y2="4.7618" gradientUnits="userSpaceOnUse">
   <stop stop-color="#5e81ac" offset="0"/>
   <stop stop-color="#81a1c1" offset="1"/>
  </linearGradient>
  <filter id="filter947" x="-.040376" y="-.037491" width="1.0808" height="1.075" color-interpolation-filters="sRGB">
   <feGaussianBlur stdDeviation="0.11572561"/>
  </filter>
 </defs>
 <g stroke-linecap="round" stroke-linejoin="round">
  <rect transform="matrix(.99138 0 0 1 .072989 2.5202e-7)" x=".79375" y="1.0171" width="15.346" height="15.346" rx="3.0526" ry="3.0526" fill="#2e3440" filter="url(#filter1178)" opacity=".2" stroke-width="1.2489" style="mix-blend-mode:normal"/>
  <rect x=".92604" y=".92604" width="15.081" height="15.081" rx="3" ry="3" fill="url(#linearGradient1340)" stroke-width="1.2274"/>
  <g transform="translate(4.0158e-5 .88309)" stroke-width=".26458">
   <path d="m12.173 9.2472s0.20485-0.05874 0.40916 0.04551c0.07089 0.03598 0.19355 0.10864 0.28203 0.20357 0.08667 0.09303 0.12893 0.18727 0.12893 0.18727l1.2435 2.4871h-2.6457s-0.59122-1.7282-1.1446-2.468c-0.1101-0.09006-0.20206-0.18653-0.31057-0.17785h-0.66159l3.18e-4 2.6444h-2.1167v-7.4068h4.0101c0.43469 0 2.2753 0.26458 2.3396 2.1167-0.06429 1.8521-1.5345 2.3813-1.5345 2.3813zm-2.6985-2.9109v1.588h1.5873s0.52915 0.01905 0.52915-0.79376c0-0.85377-0.52915-0.79328-0.52915-0.79328z" fill="#2e3440" fill-rule="evenodd" filter="url(#filter947)" opacity=".318"/>
   <path d="m8.4665 2.7186a6.3499 4.4978 0 0 0-6.3499 4.4978 6.3499 4.4978 0 0 0 6.3499 4.4978 6.3499 4.4978 0 0 0 6.3499-4.4978 6.3499 4.4978 0 0 0-6.3499-4.4978zm1.0583 1.5875a4.7624 2.9104 0 0 1 4.7624 2.9104 4.7624 2.9104 0 0 1-4.7624 2.9104 4.7624 2.9104 0 0 1-4.7624-2.9104 4.7624 2.9104 0 0 1 4.7624-2.9104z" fill="url(#linearGradient1293)"/>
   <path d="m12.173 9.2472s0.20485-0.05874 0.40916 0.04551c0.07089 0.03598 0.19355 0.10864 0.28203 0.20357 0.08667 0.09303 0.12893 0.18727 0.12893 0.18727l1.2435 2.4871h-2.6457s-0.59122-1.7282-1.1446-2.468c-0.1101-0.09006-0.20206-0.18653-0.31057-0.17785h-0.66159l3.18e-4 2.6444h-2.1167v-7.4068h4.0101c0.43469 0 2.2753 0.26458 2.3396 2.1167-0.06429 1.8521-1.5345 2.3813-1.5345 2.3813zm-2.6985-2.9109v1.588h1.5873s0.52915 0.01905 0.52915-0.79376c0-0.85377-0.52915-0.79328-0.52915-0.79328z" fill="url(#linearGradient872)" fill-rule="evenodd"/>
  </g>
  <rect x=".01215" y=".0060174" width="16.924" height="16.927" fill="none" opacity=".15" stroke-width="1.052"/>
 </g>
</svg>
